X: 12425
T: Fare Well
R: jig
M: 6/8
K: Fmajor
|:cdc fzf|ABA czc|F3 GFG|AFA GAB|
cdc fzf|ABA czc|F3 GFG|F3 A2B:|
|:cdc BGB|ABA GFG|F3 AGF|cBA A2G|
cdc BGB|ABA GFG|F3 AGF|cAF c3|
cdc BGB|ABA GFG|F3 AGF|cBA A2G|
cdc fzf|ABA czc|F3 GFG|F3 A2B:|

